X:1
T:Newton
T:Jackson
T:Newton
C:Jackson
%%score { ( 1 2 ) | ( 3 4 ) }
L:1/8
Q:1/4=240
M:3/2
K:Bb
V:1 treble nm="Piano" snm="Pno."
V:2 treble 
V:3 bass 
V:4 bass 
V:1
 F4 | (B4 c4) A4 | B4 f8 | (e4 d4) c4 | B8 c4 | d8 B4 | A8 G4 | F8 F4 | (F4 D4) E4 | F8 (B3 A) | %10
 (G4 e4) d4 | (d4 c4) f4 | (d4 B4) c4 | (A4 F4) A4 | B8 |] %15
V:2
 D4 | (F4 G4) F4 | D8 (F2 A2) | (G4 F4) E4 | D8 F4 | F8 G4 | F8 =E4 | F8 D4 | (D4 B,4) C4 | D8 F4 | %10
 (E4 F4) F4 | F8 F4 | F8 E4 | E8 E4 | D8 |] %15
V:3
 B,4 | (B,4 G,4) C4 | B,8 A,4 | B,8 A,4 | B,8 A,4 | B,8 D4 | C8 B,4 | A,8 B,4 | B,8 B,4 | B,8 F,4 | %10
 (G,4 A,4) B,4 | (B,4 A,4) A,4 | B,8 G,4 | C8 C4 | B,8 |] %15
V:4
 B,,4 | (D,4 E,4) F,4 | G,8 D,4 | (E,4 F,4) F,4 | B,,8 F,4 | B,,8 F,4 | C,8 C,4 | F,8 B,,4 | %8
 B,,8 B,,4 | B,,8 D,4 | (E,3 D, C,4) B,,4 | F,8 F,4 | (B,4 D,4) E,4 | F,8 F,4 | B,,8 |] %15

